X:17135
T:The Queen's Guards Reel
M:4/4
L:1/8
K:A
c|efec f2e2|efec dBBc|efec f2e2|fdBd cAAc|!
efec f2e2|efec dBBc|efec f2e2|fdBd cAA:|!
|:g|a2ag f2eg|afec dBBg|a2ae f2eg|fdBd cAAg|!
a2ag f2eg|afec dBBg|a2ag b2ba|gefg a3:|!
